Obsidian-SemiLight/actions/16s/retweet.svg

<svg viewBox="0 0 16 16" xmlns="http://www.w3.org/2000/svg"><path d="m3.5 3-2.5 3h1.6660156.3339844v6 1h6v-1h-5v-6h.3339844 1.6660156zm3.5 0v1h5v6h-.333984-1.666016l2.5 3 2.5-3h-1.666016-.333984v-6-1z" fill="#4d4d4d"/></svg>

<svg xmlns="http://www.w3.org/2000/svg" viewBox="0 0 16 16">
  <defs id="defs3051">
    <style type="text/css" id="current-color-scheme">
      .ColorScheme-Text {
        color:#4d4d4d;
      }
      </style>
  </defs>
 <path style="fill:currentColor;fill-opacity:1;stroke:none" 
       d="M 3.5 3 L 1 6 L 2.6660156 6 L 3 6 L 3 12 L 3 13 L 9 13 L 9 12 L 4 12 L 4 6 L 4.3339844 6 L 6 6 L 3.5 3 z M 7 3 L 7 4 L 12 4 L 12 10 L 11.666016 10 L 10 10 L 12.5 13 L 15 10 L 13.333984 10 L 13 10 L 13 4 L 13 3 L 7 3 z "
     class="ColorScheme-Text"
     />
</svg>
